svgs/kindle.svg

<svg xmlns="http://www.w3.org/2000/svg" viewBox="0 0 192 192"><path d="M147.666 170.821c-.268-.475-.002-1.451.591-2.168 1.009-1.22.758-1.388-3.845-2.57-8.598-2.209-20.111-10.834-23.667-17.731a182.11 182.11 0 0 0-3.515-6.452c-1.393-2.404-1.564-3.211-.919-4.343.876-1.534.232-3.511-2.031-6.244-1.359-1.64-13.015-24.777-13.015-25.835 0-1.233 7.222-8.081 9.622-9.122 4.959-2.152 7.949-4.989 8.881-8.425.485-1.791 2.825-6.132 5.199-9.649 4.304-6.376 8.6-13.651 8.6-14.563 0-.265-1.943-.481-4.319-.481h-4.319l-7.537 9.812c-6.604 8.6-7.518 10.126-7.392 12.344.12 2.113-.341 3.02-2.792 5.494-3.72 3.753-8.361 6.734-13.924 8.944l-4.365 1.734-2.418-1.561c-2.609-1.685-2.738-1.957-1.738-3.67.471-.807.303-1.449-.591-2.256-3.111-2.809-9.307-12.464-12.126-18.896-1.701-3.881-3.449-7.602-3.885-8.27-1.022-1.567-.278-3.676 1.296-3.672.673.001 2.746.848 4.605 1.88 1.86 1.033 3.727 1.878 4.15 1.878 1.078 0 5.871-6.427 5.871-7.872 0-.656.778-1.516 1.729-1.911 1.563-.651 1.686-1.004 1.293-3.698-.34-2.326-.104-3.565 1.077-5.656.831-1.473 2.043-2.677 2.692-2.677 1.21 0 2.831-3.695 2.831-6.454 0-1.92-3.148-8.473-5.211-10.847a80.082 80.082 0 0 1-3.23-4.039c-1.236-1.674-2.668-2.42-6.371-3.322-7.668-1.868-12.066-1.604-15.07.904-7.37 6.152-9.293 10.626-9.293 21.621 0 6.191.137 6.868 1.746 8.629 1.261 1.38 1.619 2.363 1.29 3.539-.816 2.92-1.676 3.524-4.351 3.056-2.214-.388-2.624-.213-3.3 1.411-.425 1.02-2.669 3.676-4.987 5.902-2.318 2.225-5.697 6.585-7.509 9.688-7.377 12.631-8.954 23.414-6.6 45.133.56 5.172 1.022 11.349 1.025 13.728l.006 4.325h2.78c2.767 0 2.778.012 2.36 2.455-.344 2.005-.098 2.786 1.343 4.268.97.998 1.764 2.256 1.764 2.797 0 1.072-.315 1.173-9.012 2.873-3.255.636-7.431 1.659-9.278 2.272-3.975 1.32-5.764 1.426-5.764.341 0-1.292 4.26-2.859 12.512-4.602 4.269-.903 7.892-1.752 8.051-1.888.159-.136-.336-1.007-1.1-1.937-.764-.929-1.572-2.257-1.795-2.951-.223-.694-1.274-1.371-2.336-1.505-1.813-.227-1.925-.449-1.843-3.627.049-1.862-.338-7.854-.859-13.316-1.439-15.096-1.256-27.551.51-34.629 2.396-9.606 7.856-19.59 13.623-24.911 1.953-1.801 4.326-4.62 5.274-6.264 1.651-2.862 1.838-2.967 4.431-2.488 3.099.573 3.229.329 1.321-2.496-2.88-4.263-2.439-17.485.816-24.469 1.643-3.523 6.12-8.285 9.756-10.375 3.085-1.772 7.933-1.665 15.899.354 3.864.979 5.184 1.703 6.706 3.678a255.462 255.462 0 0 0 3.614 4.565c2.859 3.503 5.147 9.199 5.111 12.726-.044 4.278-1.903 8.306-4.091 8.864-1.594.407-1.733.801-1.921 5.479-.185 4.587-.349 5.08-1.831 5.487-.895.246-1.8 1.179-2.011 2.074-.211.895-1.594 3.066-3.073 4.825-2.966 3.526-4.694 3.944-8.711 2.107-1.311-.6-2.384-.904-2.384-.675 0 .228 1.229 3.285 2.731 6.794 2.634 6.151 8.147 14.793 11.427 17.913.87.828 1.674 2.52 1.787 3.761.183 2.001.44 2.238 2.268 2.09 2.838-.23 11.072-4.802 14.587-8.1 2.497-2.344 2.791-2.919 2.106-4.12-.954-1.672-.182-2.898 10.073-16.001l6.911-8.831 6.316-.008c3.477-.005 6.508.33 6.742.744.658 1.166-3.357 8.815-8.722 16.618-2.676 3.892-5.331 8.6-5.899 10.462-1.4 4.59-2.302 5.562-8.039 8.664-2.72 1.471-6.112 3.982-7.538 5.581l-2.593 2.907 5.333 10.793c2.933 5.937 6.021 11.64 6.862 12.675 2.298 2.829 3.13 4.992 2.963 7.707-.195 3.177 4.031 11.551 7.623 15.102 6.117 6.049 16.124 11.741 20.697 11.775 2.694.02 4.089 1.107 4.089 3.186 0 1.17.414 1.302 2.921.931 6.798-1.006 12.802-2.768 16.604-4.873 2.233-1.236 4.204-2.091 4.38-1.898 1.613 1.765-6.519 6.539-14.015 8.228-7.645 1.723-13.104 2.215-13.66 1.23Zm-36.435-5.8c-.756-.19-7.406-2.341-14.777-4.781-11.985-3.968-20.621-6.349-28.35-7.819-1.418-.269-2.577-.924-2.577-1.455 0-1.773 24.993-21.533 27.236-21.533.499 0 1.347.931 1.885 2.07.538 1.139 1.671 2.747 2.517 3.573.846.827 2.377 3.534 3.401 6.016 2.27 5.502 3.512 6.812 5.408 5.702 1.171-.686 1.738-.302 4.08 2.768 5.252 6.887 6.311 9.79 5.211 14.285-.405 1.651-1.201 1.883-4.034 1.174Zm1.718-4.941c0-1.79-.832-3.56-3.091-6.574-2.605-3.475-3.4-4.088-5.058-3.898-2.352.27-5.003-2.74-6.323-7.18-.465-1.562-1.651-3.888-2.637-5.169-.985-1.281-2.124-2.955-2.531-3.721-.703-1.326-.894-1.293-3.961.674-1.772 1.136-6.982 5.18-11.579 8.986l-8.357 6.921 3.04.656c6.273 1.354 19.179 5.084 28.813 8.328 5.481 1.845 10.352 3.371 10.825 3.391.518.022.859-.936.859-2.414Zm-46.735-47.059c0-4.27 1.906-10.668 3.178-10.668.585 0 2.011 1.173 3.171 2.606 1.159 1.434 2.373 2.427 2.697 2.208 1.061-.718 3.408.554 3.192 1.73-.279 1.521-8.61 6.996-10.645 6.996-1.388 0-1.593-.37-1.593-2.872Zm6.638-2.528c.574-.496.308-1.222-.952-2.601-2.037-2.229-2.909-1.462-2.926 2.574-.01 2.322.082 2.418 1.535 1.592.851-.483 1.905-1.187 2.343-1.565Z" stroke="#000" stroke-width="8"/></svg>

<svg
    xmlns="http://www.w3.org/2000/svg"
    viewBox="0 0 192 192"
    id="vector">
    <path
        id="path"
        d="M 147.666 170.821 C 147.398 170.346 147.664 169.37 148.257 168.653 C 149.266 167.433 149.015 167.265 144.412 166.083 C 135.814 163.874 124.301 155.249 120.745 148.352 C 119.753 146.428 118.171 143.524 117.23 141.9 C 115.837 139.496 115.666 138.689 116.311 137.557 C 117.187 136.023 116.543 134.046 114.28 131.313 C 112.921 129.673 101.265 106.536 101.265 105.478 C 101.265 104.245 108.487 97.397 110.887 96.356 C 115.846 94.204 118.836 91.367 119.768 87.931 C 120.253 86.14 122.593 81.799 124.967 78.282 C 129.271 71.906 133.567 64.631 133.567 63.719 C 133.567 63.454 131.624 63.238 129.248 63.238 L 124.929 63.238 L 117.392 73.05 C 110.788 81.65 109.874 83.176 110 85.394 C 110.12 87.507 109.659 88.414 107.208 90.888 C 103.488 94.641 98.847 97.622 93.284 99.832 L 88.919 101.566 L 86.501 100.005 C 83.892 98.32 83.763 98.048 84.763 96.335 C 85.234 95.528 85.066 94.886 84.172 94.079 C 81.061 91.27 74.865 81.615 72.046 75.183 C 70.345 71.302 68.597 67.581 68.161 66.913 C 67.139 65.346 67.883 63.237 69.457 63.241 C 70.13 63.242 72.203 64.089 74.062 65.121 C 75.922 66.154 77.789 66.999 78.212 66.999 C 79.29 66.999 84.083 60.572 84.083 59.127 C 84.083 58.471 84.861 57.611 85.812 57.216 C 87.375 56.565 87.498 56.212 87.105 53.518 C 86.765 51.192 87.001 49.953 88.182 47.862 C 89.013 46.389 90.225 45.185 90.874 45.185 C 92.084 45.185 93.705 41.49 93.705 38.731 C 93.705 36.811 90.557 30.258 88.494 27.884 C 87.595 26.849 86.142 25.032 85.264 23.845 C 84.028 22.171 82.596 21.425 78.893 20.523 C 71.225 18.655 66.827 18.919 63.823 21.427 C 56.453 27.579 54.53 32.053 54.53 43.048 C 54.53 49.239 54.667 49.916 56.276 51.677 C 57.537 53.057 57.895 54.04 57.566 55.216 C 56.75 58.136 55.89 58.74 53.215 58.272 C 51.001 57.884 50.591 58.059 49.915 59.683 C 49.49 60.703 47.246 63.359 44.928 65.585 C 42.61 67.81 39.231 72.17 37.419 75.273 C 30.042 87.904 28.465 98.687 30.819 120.406 C 31.379 125.578 31.841 131.755 31.844 134.134 L 31.85 138.459 L 34.63 138.459 C 37.397 138.459 37.408 138.471 36.99 140.914 C 36.646 142.919 36.892 143.7 38.333 145.182 C 39.303 146.18 40.097 147.438 40.097 147.979 C 40.097 149.051 39.782 149.152 31.085 150.852 C 27.83 151.488 23.654 152.511 21.807 153.124 C 17.832 154.444 16.043 154.55 16.043 153.465 C 16.043 152.173 20.303 150.606 28.555 148.863 C 32.824 147.96 36.447 147.111 36.606 146.975 C 36.765 146.839 36.27 145.968 35.506 145.038 C 34.742 144.109 33.934 142.781 33.711 142.087 C 33.488 141.393 32.437 140.716 31.375 140.582 C 29.562 140.355 29.45 140.133 29.532 136.955 C 29.581 135.093 29.194 129.101 28.673 123.639 C 27.234 108.543 27.417 96.088 29.183 89.01 C 31.579 79.404 37.039 69.42 42.806 64.099 C 44.759 62.298 47.132 59.479 48.08 57.835 C 49.731 54.973 49.918 54.868 52.511 55.347 C 55.61 55.92 55.74 55.676 53.832 52.851 C 50.952 48.588 51.393 35.366 54.648 28.382 C 56.291 24.859 60.768 20.097 64.404 18.007 C 67.489 16.235 72.337 16.342 80.303 18.361 C 84.167 19.34 85.487 20.064 87.009 22.039 C 88.052 23.392 89.678 25.446 90.623 26.604 C 93.482 30.107 95.77 35.803 95.734 39.33 C 95.69 43.608 93.831 47.636 91.643 48.194 C 90.049 48.601 89.91 48.995 89.722 53.673 C 89.537 58.26 89.373 58.753 87.891 59.16 C 86.996 59.406 86.091 60.339 85.88 61.234 C 85.669 62.129 84.286 64.3 82.807 66.059 C 79.841 69.585 78.113 70.003 74.096 68.166 C 72.785 67.566 71.712 67.262 71.712 67.491 C 71.712 67.719 72.941 70.776 74.443 74.285 C 77.077 80.436 82.59 89.078 85.87 92.198 C 86.74 93.026 87.544 94.718 87.657 95.959 C 87.84 97.96 88.097 98.197 89.925 98.049 C 92.763 97.819 100.997 93.247 104.512 89.949 C 107.009 87.605 107.303 87.03 106.618 85.829 C 105.664 84.157 106.436 82.931 116.691 69.828 L 123.602 60.997 L 129.918 60.989 C 133.395 60.984 136.426 61.319 136.66 61.733 C 137.318 62.899 133.303 70.548 127.938 78.351 C 125.262 82.243 122.607 86.951 122.039 88.813 C 120.639 93.403 119.737 94.375 114 97.477 C 111.28 98.948 107.888 101.459 106.462 103.058 L 103.869 105.965 L 109.202 116.758 C 112.135 122.695 115.223 128.398 116.064 129.433 C 118.362 132.262 119.194 134.425 119.027 137.14 C 118.832 140.317 123.058 148.691 126.65 152.242 C 132.767 158.291 142.774 163.983 147.347 164.017 C 150.041 164.037 151.436 165.124 151.436 167.203 C 151.436 168.373 151.85 168.505 154.357 168.134 C 161.155 167.128 167.159 165.366 170.961 163.261 C 173.194 162.025 175.165 161.17 175.341 161.363 C 176.954 163.128 168.822 167.902 161.326 169.591 C 153.681 171.314 148.222 171.806 147.666 170.821 Z M 111.231 165.021 C 110.475 164.831 103.825 162.68 96.454 160.24 C 84.469 156.272 75.833 153.891 68.104 152.421 C 66.686 152.152 65.527 151.497 65.527 150.966 C 65.527 149.193 90.52 129.433 92.763 129.433 C 93.262 129.433 94.11 130.364 94.648 131.503 C 95.186 132.642 96.319 134.25 97.165 135.076 C 98.011 135.903 99.542 138.61 100.566 141.092 C 102.836 146.594 104.078 147.904 105.974 146.794 C 107.145 146.108 107.712 146.492 110.054 149.562 C 115.306 156.449 116.365 159.352 115.265 163.847 C 114.86 165.498 114.064 165.73 111.231 165.021 Z M 112.949 160.08 C 112.949 158.29 112.117 156.52 109.858 153.506 C 107.253 150.031 106.458 149.418 104.8 149.608 C 102.448 149.878 99.797 146.868 98.477 142.428 C 98.012 140.866 96.826 138.54 95.84 137.259 C 94.855 135.978 93.716 134.304 93.309 133.538 C 92.606 132.212 92.415 132.245 89.348 134.212 C 87.576 135.348 82.366 139.392 77.769 143.198 L 69.412 150.119 L 72.452 150.775 C 78.725 152.129 91.631 155.859 101.265 159.103 C 106.746 160.948 111.617 162.474 112.09 162.494 C 112.608 162.516 112.949 161.558 112.949 160.08 Z M 66.214 113.021 C 66.214 108.751 68.12 102.353 69.392 102.353 C 69.977 102.353 71.403 103.526 72.563 104.959 C 73.722 106.393 74.936 107.386 75.26 107.167 C 76.321 106.449 78.668 107.721 78.452 108.897 C 78.173 110.418 69.842 115.893 67.807 115.893 C 66.419 115.893 66.214 115.523 66.214 113.021 Z M 72.852 110.493 C 73.426 109.997 73.16 109.271 71.9 107.892 C 69.863 105.663 68.991 106.43 68.974 110.466 C 68.964 112.788 69.056 112.884 70.509 112.058 C 71.36 111.575 72.414 110.871 72.852 110.493 Z"
        fill="#000000"
        stroke="#000000"
        stroke-width="8"/>
</svg>
